assets/logos/engine-5.svg

<svg width="12" height="12" viewBox="0 0 12 12" fill="none" xmlns="http://www.w3.org/2000/svg">
<path fill-rule="evenodd" clip-rule="evenodd" d="M8.03418 3.18066H8.05018C8.27918 3.18066 8.49418 3.28866 8.63018 3.47266L10.2292 5.61466C10.2746 5.67525 10.2992 5.74893 10.2992 5.82466C10.2992 5.90039 10.2746 5.97408 10.2292 6.03466L8.63118 8.17666C8.56376 8.26721 8.47612 8.34076 8.37525 8.39145C8.27438 8.44215 8.16307 8.46859 8.05018 8.46866H8.03418C7.92146 8.46843 7.81034 8.44192 7.70966 8.39123C7.60898 8.34054 7.5215 8.26707 7.45418 8.17666L5.85418 6.03466C5.80874 5.97408 5.78418 5.90039 5.78418 5.82466C5.78418 5.74893 5.80874 5.67525 5.85418 5.61466L7.45218 3.47266C7.5196 3.38212 7.60724 3.30857 7.70811 3.25787C7.80898 3.20718 7.92029 3.18074 8.03318 3.18066H8.03418Z" fill="#FAFF00"/>
<path fill-rule="evenodd" clip-rule="evenodd" d="M6.44547 8.46941H3.95047C3.83775 8.46917 3.72663 8.44266 3.62595 8.39197C3.52527 8.34128 3.43779 8.26782 3.37047 8.17741L1.98047 6.31641H4.89647C4.93947 6.42341 4.99647 6.52641 5.06647 6.62241L6.44447 8.46941H6.44547Z" fill="#6BFFE4"/>
<path fill-rule="evenodd" clip-rule="evenodd" d="M3.37047 3.47266L1.98047 5.33366H4.89647C4.93947 5.22666 4.99647 5.12366 5.06647 5.02766L6.44447 3.18066H3.95047C3.83775 3.1809 3.72663 3.20741 3.62595 3.2581C3.52527 3.30879 3.43779 3.38225 3.37047 3.47266Z" fill="#41C78F"/>
<path fill-rule="evenodd" clip-rule="evenodd" d="M2.58223 8.7642C2.90423 9.1962 3.41223 9.4512 3.95023 9.4512H8.05023C8.58923 9.4512 9.09623 9.1962 9.41823 8.7642L11.0162 6.6222C11.188 6.39196 11.2807 6.11242 11.2807 5.8252C11.2807 5.53797 11.188 5.25843 11.0162 5.0282L9.41823 2.8852C9.25922 2.67246 9.05276 2.49977 8.81527 2.38085C8.57779 2.26194 8.31583 2.20008 8.05023 2.2002H3.95023C3.41123 2.2002 2.90423 2.4552 2.58223 2.8862L0.984232 5.0282C0.8125 5.25843 0.719727 5.53797 0.719727 5.8252C0.719727 6.11242 0.8125 6.39196 0.984232 6.6222L2.58223 8.7642ZM3.95023 8.4702H6.44523L5.06823 6.6222C4.998 6.52817 4.9405 6.42528 4.89723 6.3162H1.98123L3.36923 8.1772C3.43666 8.26774 3.52429 8.34129 3.62516 8.39198C3.72603 8.44268 3.83734 8.46912 3.95023 8.4692V8.4702ZM1.98023 5.3342L3.37023 3.4732C3.43755 3.38279 3.52503 3.30932 3.62571 3.25863C3.7264 3.20794 3.83751 3.18143 3.95023 3.1812H6.44523L5.06823 5.0282C4.998 5.12222 4.9405 5.22511 4.89723 5.3342H1.98023ZM8.05023 3.1812H8.03423C7.92151 3.18143 7.8104 3.20794 7.70971 3.25863C7.60903 3.30932 7.52155 3.38279 7.45423 3.4732L5.85423 5.6152C5.80879 5.67578 5.78423 5.74947 5.78423 5.8252C5.78423 5.90092 5.80879 5.97461 5.85423 6.0352L7.45223 8.1772C7.51966 8.26774 7.60729 8.34129 7.70816 8.39198C7.80903 8.44268 7.92034 8.46912 8.03323 8.4692H8.04923C8.16195 8.46896 8.27307 8.44245 8.37375 8.39176C8.47443 8.34107 8.56191 8.26761 8.62923 8.1772L10.2282 6.0352C10.2737 5.97461 10.2982 5.90092 10.2982 5.8252C10.2982 5.74947 10.2737 5.67578 10.2282 5.6152L8.63123 3.4732C8.56381 3.38265 8.47617 3.3091 8.3753 3.25841C8.27444 3.20771 8.16312 3.18127 8.05023 3.1812Z" fill="black"/>
</svg>

<svg xmlns="http://www.w3.org/2000/svg" width="12" height="12" fill="none" viewBox="0 0 12 12"><path fill="#faff00" fill-rule="evenodd" d="M8.034 3.18h.016a.72.72 0 0 1 .58.293l1.6 2.142a.35.35 0 0 1 0 .42l-1.6 2.142a.73.73 0 0 1-.58.292h-.017a.73.73 0 0 1-.58-.292l-1.6-2.142a.35.35 0 0 1 0-.42l1.598-2.142a.73.73 0 0 1 .581-.292z" clip-rule="evenodd"/><path fill="#6bffe4" fill-rule="evenodd" d="M6.445 8.47H3.95a.73.73 0 0 1-.58-.293l-1.39-1.86h2.916q.065.16.17.305z" clip-rule="evenodd"/><path fill="#41c78f" fill-rule="evenodd" d="m3.37 3.473-1.39 1.86h2.916q.065-.16.17-.305L6.444 3.18H3.95a.73.73 0 0 0-.58.292" clip-rule="evenodd"/><path fill="#000" fill-rule="evenodd" d="M2.582 8.764c.322.432.83.687 1.368.687h4.1c.54 0 1.046-.255 1.368-.687l1.598-2.142a1.33 1.33 0 0 0 0-1.594L9.418 2.885A1.7 1.7 0 0 0 8.05 2.2h-4.1c-.539 0-1.046.255-1.368.686L.984 5.028a1.33 1.33 0 0 0 0 1.594zM3.95 8.47h2.495L5.068 6.622a1.3 1.3 0 0 1-.17-.306H1.98l1.39 1.861a.73.73 0 0 0 .581.292zM1.98 5.334l1.39-1.86a.73.73 0 0 1 .58-.293h2.495L5.068 5.028q-.105.142-.17.306zm6.07-2.153h-.016a.73.73 0 0 0-.58.292l-1.6 2.142a.35.35 0 0 0 0 .42l1.598 2.142a.73.73 0 0 0 .581.292h.016a.73.73 0 0 0 .58-.292l1.6-2.142a.35.35 0 0 0 0-.42L8.63 3.473a.73.73 0 0 0-.58-.292" clip-rule="evenodd"/></svg>
